X: 143
T:Saddam's Reel
M:4/4
L:1/8
F:http://blackrosetheband.googlepages.com/ABCTUNES.ABC May 2009
C:The House Band
K:D
"F#"FGBd cBcd|cBcd "G"cBAB|"F#"FGBd cBcd|(3cBA "A"dc "Bm"B2 B2|
"F#"FGBd cBcd|cBcd "G"cBAB|"F#"FGBd cBcd|1 (3cBA "A"dc "Bm"B2 B2:|2 (3cBA "A"dc "Bm"B2 Bf|
|"G"gfeg fBBc|"D"dcde faaf|"G"gfeg fBBc|(3dcB "A"cA "Bm"B2 Bf|
"G"gfeg fBBc|"D"dcde faaf|"G"gfeg fBBc| (3dcB "A"cA "Bm"B2 B2|

